public/images/facebook.svg

<svg width="24" height="25" viewBox="0 0 24 25" fill="none" xmlns="http://www.w3.org/2000/svg">
<path d="M24 12.5733C24 5.90541 18.6274 0.5 12 0.5C5.37258 0.5 0 5.90541 0 12.5733C0 18.5995 4.38823 23.5943 10.125 24.5V16.0633H7.07813V12.5733H10.125V9.91343C10.125 6.88755 11.9165 5.21615 14.6576 5.21615C15.9705 5.21615 17.3438 5.45195 17.3438 5.45195V8.42313H15.8306C14.3399 8.42313 13.875 9.35379 13.875 10.3086V12.5733H17.2031L16.6711 16.0633H13.875V24.5C19.6118 23.5943 24 18.5995 24 12.5733Z" fill="white"/>
</svg>

<svg width="24" height="25" fill="none" xmlns="http://www.w3.org/2000/svg"><path d="M24 12.573C24 5.905 18.627.5 12 .5S0 5.905 0 12.573C0 18.6 4.388 23.594 10.125 24.5v-8.437H7.078v-3.49h3.047v-2.66c0-3.025 1.791-4.697 4.533-4.697 1.313 0 2.686.236 2.686.236v2.971H15.83c-1.491 0-1.956.93-1.956 1.886v2.264h3.328l-.532 3.49h-2.796V24.5C19.612 23.594 24 18.6 24 12.573z" fill="#fff"/></svg>
